dist/svg/playbook.svg

<!-- Generated by Trend Micro Style Portal -->
<svg version="1.1" xmlns="http://www.w3.org/2000/svg" width="16" height="16" viewBox="0 0 16 16">
  <title>playbook</title>
  <path fill="rgb(34,34,34)" d="M1 0v16h14v-16h-14zM14 15h-12v-14h12v14zM7.3 8.6h-2.3l0.6-5.6h3.6l-1.2 3.8h3l-4.2 6.2 0.5-4.4z"></path>
</svg>

<svg width="16" height="16" viewBox="0 0 16 16" fill="rgb(34, 34, 34)" xmlns="http://www.w3.org/2000/svg"><title>playbook</title><path opacity="0.92" d="M1 0V16H15V0H1ZM14 15H2V1H14V15ZM7.3 8.6H5L5.6 3H9.2L8 6.8H11L6.8 13L7.3 8.6Z" fill="rgb(34, 34, 34)" fill-opacity="1.00"/></svg>
